Dominus_Funeral/scalable/actions/folder-move.svg

<svg xmlns="http://www.w3.org/2000/svg" width="24" height="24"><path fill="#1a1a1a" d="M13.73 2.63a6.03 6.03 0 0 0-1.75.3 6.12 6.12 0 0 0-1.74-.29c-2.94 0-6.9 2.86-6.96 5.27-.07 2.61-.26 7.34-.4 10.98h-.32v2.38H21.4v-2.38h-.35c-.13-4.24-.28-9.12-.39-11-.15-2.5-4-5.26-6.94-5.26zM9.6 4.07C8.02 5.12 6.8 6.57 6.77 7.9c-.07 2.61-.25 7.35-.4 10.99H4.6c-.04-5.7.08-10.24.08-10.24 0-1.9 2.76-4.17 4.93-4.58z"/></svg>

<?xml version="1.0" encoding="UTF-8" standalone="no"?>
<svg
   xmlns:dc="http://purl.org/dc/elements/1.1/"
   xmlns:cc="http://creativecommons.org/ns#"
   xmlns:rdf="http://www.w3.org/1999/02/22-rdf-syntax-ns#"
   xmlns:svg="http://www.w3.org/2000/svg"
   xmlns="http://www.w3.org/2000/svg"
   xmlns:sodipodi="http://sodipodi.sourceforge.net/DTD/sodipodi-0.dtd"
   xmlns:inkscape="http://www.inkscape.org/namespaces/inkscape"
   width="24"
   height="24"
   version="1.1"
   id="svg4"
   sodipodi:docname="folder-move.svg"
   inkscape:version="0.92.4 (5da689c313, 2019-01-14)">
  <metadata
     id="metadata10">
    <rdf:RDF>
      <cc:Work
         rdf:about="">
        <dc:format>image/svg+xml</dc:format>
        <dc:type
           rdf:resource="http://purl.org/dc/dcmitype/StillImage" />
        <dc:title></dc:title>
      </cc:Work>
    </rdf:RDF>
  </metadata>
  <defs
     id="defs8" />
  <sodipodi:namedview
     pagecolor="#ffffff"
     bordercolor="#666666"
     borderopacity="1"
     objecttolerance="10"
     gridtolerance="10"
     guidetolerance="10"
     inkscape:pageopacity="0"
     inkscape:pageshadow="2"
     inkscape:window-width="1112"
     inkscape:window-height="480"
     id="namedview6"
     showgrid="false"
     inkscape:zoom="9.8333333"
     inkscape:cx="1.0677966"
     inkscape:cy="12"
     inkscape:window-x="0"
     inkscape:window-y="25"
     inkscape:window-maximized="0"
     inkscape:current-layer="svg4" />
  <path
     d="M 13.73,2.63 A 6.03,6.03 0 0 0 11.98,2.93 6.12,6.12 0 0 0 10.24,2.64 C 7.3,2.64 3.34,5.5 3.28,7.91 3.21,10.52 3.02,15.25 2.88,18.89 H 2.56 v 2.38 H 21.4 v -2.38 h -0.35 c -0.13,-4.24 -0.28,-9.12 -0.39,-11 -0.15,-2.5 -4,-5.26 -6.94,-5.26 z M 9.6,4.07 C 8.02,5.12 6.8,6.57 6.77,7.9 6.7,10.51 6.52,15.25 6.37,18.89 H 4.6 C 4.56,13.19 4.68,8.65 4.68,8.65 4.68,6.75 7.44,4.48 9.61,4.07 Z"
     id="path2"
     inkscape:connector-curvature="0"
     style="fill:#1a1a1a" />
</svg>
